X:2701
T:Humours of Ennistymon, The
O:england
M:6/8
L:1/8
R:jig
K:G
A|~B3 GBd|cBc ABc|~B3 GBd|cAG FGA|~B3 GBd|cBc ABc|ded cAF|AGF G2:|
|:e|~f3 fed|cAG FGA|dgg gfg|afd d2e|~f3 fed|cAG FGA|~B3 cAF|AGF G2:|
d|gdB gdB|ecA ecA|~B3 GBd|cAG FGA|gdB gdB|ecA ecA|~B3 GBd|cAF G2d| gdB
gdB|ecA ecA|~B3 GBd|cAG FGA|~B3 GBd|cBc ABc|ded cAF|AGF G2||


